X: 6
T:Little Red Waggon
% Nottingham Music Database
S:Kevin Briggs, via EF
P:ABCA
M:4/4
L:1/4
K:D
P:A
"F#7"A^A |"B7"B2 AF|"B7"B2 AF|"E7"E2 B,2-|"E7"B,2 B,=C|"A7"C2 B,A,|"A7"GG FE|\
"D"F4-|"D"F2 ||
P:B
"F#7"A^A |"B7"B2 AF|"B7"B2 AF|"E7"E2 B,2-|"E7"B,2 F2|"B7"F2 F2|"B7"F2 ED|\
"E7"E4-|"A"E2 ||
P:C
z A|"D"A2 A2|"D7"A2 B3/2A/2|"G"AG -G2-|"G"G2 G2|"B7"F2 F2|"B7"F2 G3/2F/2|"E7"E4-\
|"A"E2 ||


